RCanvas/rh1_twoscales.svg

<svg width="1200" height="800" viewBox="0 0 800 600" preserveAspectRatio="none" xmlns="http://www.w3.org/2000/svg">
 <path d="M0,0H800V600H0Z" style="fill: white;"></path>
 <g>
  <g transform="translate(56,72)">
   <rect x="0" y="0" width="704" height="456" style="fill: none; stroke: black; stroke-width: 1;"></rect>
   <svg x="0" y="0" overflow="hidden" width="704" height="456" viewBox="0 0 704 456">
    <g>
     <path d="M0,456h56v-28h28v-43h29v-71h28v-129h28v-71h28v-92h28v15h28v170h29v129h28v62h28v47h28v7h28v4h310" style="stroke-linejoin: miter; stroke: #FF0000; stroke-width: 2; fill: none;"></path>
    </g>
    <g>
     <path d="M0,456h197v-1h28v-1h28v-8h29v-13h28v-23h28v-76h28v-81h28v-89h28v-43h29v-87h28v-12h28v6h28v104h28v73h28v40h29v117h28v41h28v23h28" style="stroke-linejoin: miter; stroke: #0000FF; stroke-width: 4; fill: none;"></path>
    </g>
   </svg>
   <g>
    <g transform="translate(0,456)">
     <path d="M0,-12v12m35,-6v6m35,-6v6m36,-6v6m35,-12v12m35,-6v6m35,-6v6m35,-6v6m36,-12v12m35,-6v6m35,-6v6m35,-6v6m35,-12v12m36,-6v6m35,-6v6m35,-6v6m35,-12v12m35,-6v6m36,-6v6m35,-6v6m35,-12v12" style="stroke: black;"></path>
     <g font-family="Arial" font-size="18" space="preserve">
      <text text-anchor="middle" dy=".8em" transform="translate(0,3)">
       0
      </text>
      <text text-anchor="middle" dy=".8em" transform="translate(141,3)">
       2
      </text>
      <text text-anchor="middle" dy=".8em" transform="translate(282,3)">
       4
      </text>
      <text text-anchor="middle" dy=".8em" transform="translate(422,3)">
       6
      </text>
      <text text-anchor="middle" dy=".8em" transform="translate(563,3)">
       8
      </text>
      <text text-anchor="middle" dy=".8em" transform="translate(704,3)">
       10
      </text>
     </g>
    </g>
    <g transform="translate(0,456)">
     <path d="M16,0h-16m8,-21h-8m8,-22h-8m8,-21h-8m8,-22h-8m16,-21h-16m8,-22h-8m8,-21h-8m8,-22h-8m8,-21h-8m16,-22h-16m8,-21h-8m8,-22h-8m8,-21h-8m8,-22h-8m16,-21h-16m8,-22h-8m8,-21h-8m8,-22h-8m8,-21h-8m16,-22h-16m8,-21h-8" style="stroke: #FF0000;"></path>
     <g font-family="Arial" font-size="18" space="preserve">
      <text text-anchor="end" dy=".4em" transform="translate(-4)">
       0
      </text>
      <text text-anchor="end" dy=".4em" transform="translate(-4,-107)">
       50
      </text>
      <text text-anchor="end" dy=".4em" transform="translate(-4,-215)">
       100
      </text>
      <text text-anchor="end" dy=".4em" transform="translate(-4,-322)">
       150
      </text>
      <text text-anchor="end" dy=".4em" transform="translate(-4,-430)">
       200
      </text>
     </g>
    </g>
    <g transform="translate(704,456)">
     <path d="M0,0h-16m16,-11h-8m8,-11h-8m8,-11h-8m8,-11h-8m8,-11h-16m16,-11h-8m8,-11h-8m8,-11h-8m8,-11h-8m8,-11h-16m16,-11h-8m8,-11h-8m8,-11h-8m8,-11h-8m8,-11h-16m16,-11h-8m8,-11h-8m8,-11h-8m8,-11h-8m8,-11h-16m16,-11h-8m8,-11h-8m8,-12h-8m8,-11h-8m8,-11h-16m16,-11h-8m8,-11h-8m8,-11h-8m8,-11h-8m8,-11h-16m16,-11h-8m8,-11h-8m8,-11h-8m8,-11h-8m8,-11h-16m16,-11h-8m8,-11h-8m8,-11h-8m8,-11h-8m8,-11h-16m16,-11h-8" style="stroke: #0000FF;"></path>
     <g font-family="Arial" font-size="18" space="preserve">
      <text text-anchor="start" dy=".4em" transform="translate(4)">
       0
      </text>
      <text text-anchor="start" dy=".4em" transform="translate(4,-55)">
       50
      </text>
      <text text-anchor="start" dy=".4em" transform="translate(4,-110)">
       100
      </text>
      <text text-anchor="start" dy=".4em" transform="translate(4,-165)">
       150
      </text>
      <text text-anchor="start" dy=".4em" transform="translate(4,-220)">
       200
      </text>
      <text text-anchor="start" dy=".4em" transform="translate(4,-276)">
       250
      </text>
      <text text-anchor="start" dy=".4em" transform="translate(4,-331)">
       300
      </text>
      <text text-anchor="start" dy=".4em" transform="translate(4,-386)">
       350
      </text>
      <text text-anchor="start" dy=".4em" transform="translate(4,-441)">
       400
      </text>
     </g>
    </g>
   </g>
  </g>
  <g transform="translate(56,30)" font-family="Arial" font-size="42" space="preserve">
   <text fill="black" text-anchor="middle" dy=".4em" transform="translate(352,15)">
    Two independent Y axes for histograms
   </text>
  </g>
 </g>
</svg>

<svg width="1200" height="800" viewBox="0 0 800 600" preserveAspectRatio="none" xmlns="http://www.w3.org/2000/svg">
 <path d="M0,0H800V600H0Z" style="fill: white;"></path>
 <g>
  <g transform="translate(56,72)">
   <rect x="0" y="0" width="704" height="456" style="fill: none; stroke: black; stroke-width: 1;"></rect>
   <svg x="0" y="0" overflow="hidden" width="704" height="456" viewBox="0 0 704 456">
    <g>
     <path d="M0,456h56v-28h28v-43h29v-71h28v-129h28v-71h28v-92h28v15h28v170h29v129h28v62h28v47h28v7h28v4h310" style="stroke-linejoin: miter; stroke: #FF0000; stroke-width: 2; fill: none;"></path>
    </g>
    <g>
     <path d="M0,456h197v-1h28v-1h28v-8h29v-13h28v-23h28v-76h28v-81h28v-89h28v-43h29v-87h28v-12h28v6h28v104h28v73h28v40h29v117h28v41h28v23h28" style="stroke-linejoin: miter; stroke: #0000FF; stroke-width: 4; fill: none;"></path>
    </g>
   </svg>
   <g>
    <g transform="translate(0,456)">
     <path d="M0,-12V0M35,-6V0M70,-6V0M106,-6V0M141,-12V0M176,-6V0M211,-6V0M246,-6V0M282,-12V0M317,-6V0M352,-6V0M387,-6V0M422,-12V0M458,-6V0M493,-6V0M528,-6V0M563,-12V0M598,-6V0M634,-6V0M669,-6V0M704,-12V0" style="stroke: black;"></path>
     <g font-family="Arial" font-size="18" space="preserve">
      <text text-anchor="middle" dy=".8em" transform="translate(0,3)">
       0
      </text>
      <text text-anchor="middle" dy=".8em" transform="translate(141,3)">
       2
      </text>
      <text text-anchor="middle" dy=".8em" transform="translate(282,3)">
       4
      </text>
      <text text-anchor="middle" dy=".8em" transform="translate(422,3)">
       6
      </text>
      <text text-anchor="middle" dy=".8em" transform="translate(563,3)">
       8
      </text>
      <text text-anchor="middle" dy=".8em" transform="translate(704,3)">
       10
      </text>
     </g>
    </g>
    <g transform="translate(0,456)">
     <path d="M16,0H0M8,-21H0M8,-43H0M8,-64H0M8,-86H0M16,-107H0M8,-129H0M8,-150H0M8,-172H0M8,-193H0M16,-215H0M8,-236H0M8,-258H0M8,-279H0M8,-301H0M16,-322H0M8,-344H0M8,-365H0M8,-387H0M8,-408H0M16,-430H0M8,-451H0" style="stroke: #FF0000;"></path>
     <g font-family="Arial" font-size="18" space="preserve">
      <text text-anchor="end" dy=".4em" transform="translate(-4)">
       0
      </text>
      <text text-anchor="end" dy=".4em" transform="translate(-4,-107)">
       50
      </text>
      <text text-anchor="end" dy=".4em" transform="translate(-4,-215)">
       100
      </text>
      <text text-anchor="end" dy=".4em" transform="translate(-4,-322)">
       150
      </text>
      <text text-anchor="end" dy=".4em" transform="translate(-4,-430)">
       200
      </text>
     </g>
    </g>
    <g transform="translate(704,456)">
     <path d="M0,0H-16M0,-11H-8M0,-22H-8M0,-33H-8M0,-44H-8M0,-55H-16M0,-66H-8M0,-77H-8M0,-88H-8M0,-99H-8M0,-110H-16M0,-121H-8M0,-132H-8M0,-143H-8M0,-154H-8M0,-165H-16M0,-176H-8M0,-187H-8M0,-198H-8M0,-209H-8M0,-220H-16M0,-231H-8M0,-242H-8M0,-254H-8M0,-265H-8M0,-276H-16M0,-287H-8M0,-298H-8M0,-309H-8M0,-320H-8M0,-331H-16M0,-342H-8M0,-353H-8M0,-364H-8M0,-375H-8M0,-386H-16M0,-397H-8M0,-408H-8M0,-419H-8M0,-430H-8M0,-441H-16M0,-452H-8" style="stroke: #0000FF;"></path>
     <g font-family="Arial" font-size="18" space="preserve">
      <text text-anchor="start" dy=".4em" transform="translate(4)">
       0
      </text>
      <text text-anchor="start" dy=".4em" transform="translate(4,-55)">
       50
      </text>
      <text text-anchor="start" dy=".4em" transform="translate(4,-110)">
       100
      </text>
      <text text-anchor="start" dy=".4em" transform="translate(4,-165)">
       150
      </text>
      <text text-anchor="start" dy=".4em" transform="translate(4,-220)">
       200
      </text>
      <text text-anchor="start" dy=".4em" transform="translate(4,-276)">
       250
      </text>
      <text text-anchor="start" dy=".4em" transform="translate(4,-331)">
       300
      </text>
      <text text-anchor="start" dy=".4em" transform="translate(4,-386)">
       350
      </text>
      <text text-anchor="start" dy=".4em" transform="translate(4,-441)">
       400
      </text>
     </g>
    </g>
   </g>
  </g>
  <g transform="translate(56,30)" font-family="Arial" font-size="42" space="preserve">
   <text fill="black" text-anchor="middle" dy=".4em" transform="translate(352,15)">
    Two independent Y axes for histograms
   </text>
  </g>
 </g>
</svg>
